icons/codeac/codeac-original.svg

<?xml version="1.0" encoding="UTF-8"?>
<svg viewBox="0 0 128 128" version="1.1" width="128" height="128" xmlns="http://www.w3.org/2000/svg">
    <path fill="#005096"
          d="M 110.87623,40.621243 91.138035,22.228479 V 18.4138 L 79.757314,7.017249 70.608416,11.306785 H 70.465959 L 68.883105,14.551636 53.561077,14.50415 38.523962,7.5395909 h -8.167528 l -3.68805,7.9142721 V 30.66509 l -4.748563,4.748563 -4.194564,-0.427371 v 7.455244 L 2.1183151,49.754312 v 11.918892 l 3.9887925,8.531584 3.3239939,0.3324 4.0521065,8.658212 8.974784,0.775599 8.151699,8.072556 3.323993,3.308165 29.820974,29.63103 H 78.617659 L 125.88168,40.621243 Z M 31.891803,16.514375 33.775399,12.383126 h 5.856561 l 8.626555,4.131249 -10.225238,4.748563 -2.675024,-5.809075 h -1.962739 v 8.468268 L 31.81266,25.504986 Z M 67.85425,98.63285 55.428845,86.159959 H 35.738138 L 25.022215,75.222436 16.648917,74.510152 15.066062,70.964558 h 16.889055 l 8.579069,-8.547412 -11.50735,5.365875 -19.6432202,-2.041882 -2.4217669,-5.20759 v -5.20759 l 4.6535911,0.490685 1.582854,3.830507 v 0 l 1.709483,3.988792 8.183356,-8.183356 -6.489702,0.633142 -1.74114,-4.273707 -4.827705,-0.474856 19.659049,-9.180554 1.076341,0.1108 4.321192,9.259697 14.451459,1.266283 6.394731,-13.89746 -6.331417,-0.633142 -4.178735,8.927298 V 37.83542 l -17.411396,-1.836111 9.069754,-9.053926 16.461684,-7.613527 13.169347,0.09497 -3.862164,8.325812 h 3.482279 l 5.42919,-11.665635 6.94873,-3.244851 7.5977,7.581872 v 18.994249 l 4.827705,2.247653 V 29.003093 L 108.69189,43.80278 Z M 74.573466,41.270204 79.5278,43.581171 V 25.330864 l -11.554836,5.381702 h 6.600502 z"/>
</svg>

<svg viewBox="0 0 128 128" xmlns="http://www.w3.org/2000/svg"><path fill="#005096" d="M110.876 40.621L91.138 22.228v-3.814L79.758 7.017l-9.15 4.29h-.142l-1.583 3.245-15.322-.048L38.524 7.54h-8.168l-3.688 7.914v15.211l-4.748 4.749-4.195-.428v7.456L2.118 49.754v11.92l3.99 8.53 3.323.333 4.052 8.658 8.975.776 8.152 8.073 3.324 3.308 29.82 29.63h14.864l47.264-80.36zM31.892 16.514l1.883-4.13h5.857l8.627 4.13-10.226 4.749-2.675-5.81h-1.962v8.47l-1.583 1.582zm35.962 82.119L55.43 86.16h-19.69L25.021 75.222l-8.373-.712-1.583-3.545h16.89l8.578-8.548-11.507 5.366-19.643-2.042-2.422-5.207v-5.208l4.653.49 1.583 3.831 1.71 3.989 8.183-8.183-6.49.633-1.74-4.274-4.828-.475 19.659-9.18 1.076.11 4.321 9.26 14.452 1.266 6.394-13.897-6.331-.633-4.179 8.927v-9.355L28.014 36l9.07-9.054 16.461-7.613 13.17.095-3.863 8.326h3.483l5.429-11.666 6.949-3.245 7.597 7.582v18.994l4.828 2.248V29.003l17.554 14.8zm6.72-57.363l4.954 2.311v-18.25l-11.555 5.382h6.6z"/></svg>
